apps/web/assets/svg/channel.svg

<svg
	width="24"
	height="24"
	viewBox="0 0 24 24"
	fill="none"
	xmlns="http://www.w3.org/2000/svg"
>
	<path
		d="M19 19H5V5H19V19ZM19 3H5C4.46957 3 3.96086 3.21071 3.58579 3.58579C3.21071 3.96086 3 4.46957 3 5V19C3 19.5304 3.21071 20.0391 3.58579 20.4142C3.96086 20.7893 4.46957 21 5 21H19C19.5304 21 20.0391 20.7893 20.4142 20.4142C20.7893 20.0391 21 19.5304 21 19V5C21 4.46957 20.7893 3.96086 20.4142 3.58579C20.0391 3.21071 19.5304 3 19 3ZM7 9H9.31L9.63 6H11.63L11.31 9H13.31L13.63 6H15.63L15.31 9H17V11H15.1L14.9 13H17V15H14.69L14.37 18H12.37L12.69 15H10.69L10.37 18H8.37L8.69 15H7V13H8.9L9.1 11H7V9ZM11.1 11L10.9 13H12.9L13.1 11H11.1Z"
		fill="currentColor"
	/>
</svg>

<svg xmlns="http://www.w3.org/2000/svg" width="24" height="24" fill="none" viewBox="0 0 24 24"><path fill="currentColor" d="M19 19H5V5h14v14Zm0-16H5a2 2 0 0 0-2 2v14a2 2 0 0 0 2 2h14a2 2 0 0 0 2-2V5a2 2 0 0 0-2-2ZM7 9h2.31l.32-3h2l-.32 3h2l.32-3h2l-.32 3H17v2h-1.9l-.2 2H17v2h-2.31l-.32 3h-2l.32-3h-2l-.32 3h-2l.32-3H7v-2h1.9l.2-2H7V9Zm4.1 2-.2 2h2l.2-2h-2Z"/></svg>
